src/baseIcons/icon-arrow-down.svg

<?xml version="1.0" encoding="UTF-8"?>
<svg  viewBox="0 0 24 24" version="1.1" xmlns="http://www.w3.org/2000/svg" xmlns:xlink="http://www.w3.org/1999/xlink">
    <title>Icons/Basic icons/arrow-down</title>
    <defs>
        <path d="M18.7057,16.2913 C18.3147,15.9013 17.6827,15.9013 17.2917,16.2913 L12.9987,20.5853 L12.9987,1.0003 C12.9987,0.4473 12.5517,0.0003 11.9987,0.0003 C11.4457,0.0003 10.9987,0.4473 10.9987,1.0003 L10.9987,20.5853 L6.7057,16.2913 C6.3147,15.9013 5.6827,15.9013 5.2917,16.2913 C4.9007,16.6823 4.9007,17.3153 5.2917,17.7053 L11.2907,23.7063 C11.3827,23.7983 11.4917,23.8713 11.6137,23.9223 C11.7337,23.9723 11.8647,24.0003 11.9987,24.0003 C12.1327,24.0003 12.2627,23.9723 12.3837,23.9223 C12.5057,23.8713 12.6147,23.7983 12.7067,23.7063 L18.7057,17.7053 C19.0967,17.3153 19.0967,16.6823 18.7057,16.2913"   id="path-1"></path>
    </defs>
    <g   id="Icons/Basic-icons/arrow-down" stroke="none" stroke-width="1" fill="none" fill-rule="evenodd">
        <mask id="mask-2" fill="white">
            <use xlink:href="#path-1"></use>
        </mask>
        <use id="Shape" fill="#292929" xlink:href="#path-1"></use>
    </g>
</svg>

<svg xmlns="http://www.w3.org/2000/svg" xmlns:xlink="http://www.w3.org/1999/xlink" viewBox="0 0 24 24"><path d="M18.7057 16.2913c-.391-.39-1.023-.39-1.414 0l-4.293 4.294V1.0003c0-.553-.447-1-1-1-.553 0-1 .447-1 1v19.585l-4.293-4.294c-.391-.39-1.023-.39-1.414 0-.391.391-.391 1.024 0 1.414l5.999 6.001c.092.092.201.165.323.216.12.05.251.078.385.078s.264-.028.385-.078c.122-.051.231-.124.323-.216l5.999-6.001c.391-.39.391-1.023 0-1.414" id="a"/></svg>
